src/assets/svg/icons/fa/nuevos/classic/duotone/truck-droplet classic duotone.svg

<svg xmlns="http://www.w3.org/2000/svg" viewBox="0 0 640 512"><!--! Font Awesome Pro 6.4.0 by @fontawesome - https://fontawesome.com License - https://fontawesome.com/license (Commercial License) Copyright 2023 Fonticons, Inc. --><defs><style>.fa-secondary{opacity:.4}</style></defs><path class="fa-primary" d="M0 48C0 21.5 21.5 0 48 0H368c26.5 0 48 21.5 48 48V96h50.7c17 0 33.3 6.7 45.3 18.7L589.3 192c12 12 18.7 28.3 18.7 45.3V256v32 64c17.7 0 32 14.3 32 32s-14.3 32-32 32H576h-1.1c-7.8-54.3-54.4-96-110.9-96s-103.1 41.7-110.9 96H286.9c-7.8-54.3-54.4-96-110.9-96s-103.1 41.7-110.9 96H48c-26.5 0-48-21.5-48-48V48zM416 256H544V237.3L466.7 160H416v96zm-208 0c39.8 0 72-29.6 72-66c0-27-39.4-82.9-59.9-110.3c-6.1-8.2-18.1-8.2-24.2 0C175.4 107 136 163 136 190c0 36.5 32.2 66 72 66z"/><path class="fa-secondary" d="M280 190c0 36.5-32.2 66-72 66s-72-29.6-72-66c0-27 39.4-82.9 59.9-110.3c6.1-8.2 18.1-8.2 24.2 0C240.6 107 280 163 280 190zM96 432a80 80 0 1 1 160 0A80 80 0 1 1 96 432zm368-80a80 80 0 1 1 0 160 80 80 0 1 1 0-160z"/></svg>

<svg xmlns="http://www.w3.org/2000/svg" viewBox="0 0 640 512"><defs><style>.fa-secondary{opacity:.4}</style></defs><path class="fa-primary" d="M.0003 48C.0003 21.49 21.49 0 48 0H368C394.5 0 416 21.49 416 48V96H466.7C483.7 96 499.1 102.7 512 114.7L589.3 192C601.3 204 608 220.3 608 237.3V352C625.7 352 640 366.3 640 384C640 401.7 625.7 416 608 416H574.9C567.1 361.7 520.4 320 464 320C407.6 320 360.9 361.7 353.1 416H286.9C279.1 361.7 232.4 320 176 320C119.6 320 72.9 361.7 65.13 416H48C21.49 416 0 394.5 0 368L.0003 48zM544 256V237.3L466.7 160H416V256H544zM208 256C247.8 256 280 226.4 280 189.1C280 163 240.6 107 220.1 79.71C213.1 71.54 202 71.54 195.9 79.71C175.4 107 136 163 136 189.1C136 226.4 168.2 256 208 256V256z"/><path class="fa-secondary" d="M280 189.1C280 226.4 247.8 256 208 256C168.2 256 136 226.4 136 189.1C136 163 175.4 107 195.9 79.71C202 71.54 213.1 71.54 220.1 79.71C240.6 107 280 163 280 189.1zM256 432C256 476.2 220.2 512 176 512C131.8 512 96 476.2 96 432C96 387.8 131.8 352 176 352C220.2 352 256 387.8 256 432zM384 432C384 387.8 419.8 352 464 352C508.2 352 544 387.8 544 432C544 476.2 508.2 512 464 512C419.8 512 384 476.2 384 432z"/></svg>
